img/svg/exit-ico.svg

<svg width="16" height="17" viewBox="0 0 16 17" fill="none" xmlns="http://www.w3.org/2000/svg">
<path d="M11.2812 12.75V14C11.2812 15.3785 10.1598 16.5 8.78125 16.5H2.5C1.12146 16.5 0 15.3785 0 14V3C0 1.62146 1.12146 0.5 2.5 0.5H8.78125C10.1598 0.5 11.2812 1.62146 11.2812 3V4.25C11.2812 4.59521 11.0015 4.875 10.6562 4.875C10.311 4.875 10.0312 4.59521 10.0312 4.25V3C10.0312 2.31079 9.47046 1.75 8.78125 1.75H2.5C1.81079 1.75 1.25 2.31079 1.25 3V14C1.25 14.6892 1.81079 15.25 2.5 15.25H8.78125C9.47046 15.25 10.0312 14.6892 10.0312 14V12.75C10.0312 12.4048 10.311 12.125 10.6562 12.125C11.0015 12.125 11.2812 12.4048 11.2812 12.75ZM15.5424 7.42639L14.1428 6.02686C13.8987 5.78271 13.5029 5.78271 13.2589 6.02686C13.0148 6.27087 13.0148 6.66663 13.2589 6.91064L14.2544 7.90625H6.75C6.40479 7.90625 6.125 8.18604 6.125 8.53125C6.125 8.87646 6.40479 9.15625 6.75 9.15625H14.2544L13.2589 10.1519C13.0148 10.3959 13.0148 10.7916 13.2589 11.0356C13.381 11.1577 13.5409 11.2188 13.7008 11.2188C13.8608 11.2188 14.0208 11.1577 14.1428 11.0356L15.5424 9.63611C16.1516 9.02686 16.1516 8.03564 15.5424 7.42639V7.42639Z" fill="#4C51CC"/>
</svg>

<svg width="16" height="17" fill="none" xmlns="http://www.w3.org/2000/svg"><path d="M11.281 12.75V14c0 1.379-1.121 2.5-2.5 2.5H2.5A2.503 2.503 0 010 14V3C0 1.621 1.121.5 2.5.5h6.281c1.379 0 2.5 1.121 2.5 2.5v1.25a.625.625 0 11-1.25 0V3c0-.69-.56-1.25-1.25-1.25H2.5c-.69 0-1.25.56-1.25 1.25v11c0 .69.56 1.25 1.25 1.25h6.281c.69 0 1.25-.56 1.25-1.25v-1.25a.625.625 0 111.25 0zm4.261-5.324l-1.4-1.4a.625.625 0 10-.883.885l.995.995H6.75a.625.625 0 100 1.25h7.504l-.995.996a.625.625 0 10.884.884l1.4-1.4c.609-.61.609-1.6 0-2.21z" fill="#4C51CC"/></svg>
